X: 166
T:Minuet Royall. HA.165
M:3/4
L:1/8
Q:1/4=140
S:Henry Atkinson's original MS,Hartburn,N'umberland,1694.
O:England
A:Hartburn,Northumberland
N:cf Apollo's Banquet,1687..CGP.
H:1/8
Z:vmp.Neil Brookes, Jan.2004
K:C
c2E2c2|D4c2|(cd)B4|cBcd c2|c2E2c2|D4c2|!
(cd)B4|c6||G2c2e2|g6|g2 ga gf|e3dc2|!
dcde d2|dcde d2|defedc|B3AG2|G2 (EF) GE|G2 (EF) GE|!
G2 (EF) GE|g6-|g3 agf|g2G2c2|cd d4|c6|]
